X:2656
T:Hot Ashpelt
O:england
B:Something to Sing (Cambridge 1965)
M:6/8
L:1/8
K:Em
G|E2 E E2 F|E2 D EFF|
G2 A B2 G|A3 B2 d|e2 d B2 A|
G2 E E2 D|E2 E E2 B,|D3 G2 F|
E2 E E2 F|E2 D E2 F|G2 A B2 G|
A3 B2 d|e2 d B2 A|G2 E F2 D|
E Z2 E Z2|E Z2 BBB|d2 d d2 B|
d d2-d2 B|d2 c B2 c|d2 z z2 d|
e2 B B2 A|G E2-E2 F|E2 E E2 B,|
D2 Z G2 F|EEE E2 F|E2 D E2 F|
G2 A B2 G|A2 Z B2 d|e2 d B2 A|
G2 E FFD|E Z2 E Z2|E Z2 Z2|]


